inst/assets/svg/wi-night-lightning.svg

<?xml version="1.0" encoding="UTF-8"?>
<svg xmlns="http://www.w3.org/2000/svg" xmlns:xlink="http://www.w3.org/1999/xlink" width="30pt" height="30pt" viewBox="0 0 30 30" version="1.1">
<g id="surface731">
<path style=" stroke:none;fill-rule:nonzero;fill:rgb(0%,0%,0%);fill-opacity:1;" d="M 4.289063 16.929688 C 4.289063 17.589844 4.410156 18.210938 4.671875 18.808594 C 4.929688 19.410156 5.261719 19.921875 5.691406 20.359375 C 6.121094 20.800781 6.628906 21.148438 7.210938 21.410156 C 7.789063 21.671875 8.421875 21.828125 9.078125 21.859375 C 9.199219 21.859375 9.261719 21.800781 9.261719 21.691406 L 9.261719 20.351563 C 9.261719 20.238281 9.199219 20.179688 9.078125 20.179688 C 8.210938 20.121094 7.480469 19.769531 6.890625 19.148438 C 6.300781 18.53125 6 17.78125 6 16.929688 C 6 16.089844 6.28125 15.359375 6.851563 14.75 C 7.421875 14.128906 8.109375 13.78125 8.949219 13.710938 L 9.46875 13.648438 C 9.589844 13.648438 9.660156 13.589844 9.660156 13.46875 L 9.738281 12.949219 C 9.808594 12.238281 10.039063 11.589844 10.429688 11.011719 C 10.820313 10.429688 11.328125 9.96875 11.949219 9.648438 C 12.570313 9.328125 13.238281 9.160156 13.96875 9.160156 C 15.058594 9.160156 16.011719 9.519531 16.820313 10.238281 C 17.628906 10.960938 18.089844 11.859375 18.210938 12.929688 L 18.28125 13.511719 C 18.28125 13.621094 18.339844 13.679688 18.46875 13.679688 L 20.070313 13.679688 C 20.96875 13.679688 21.738281 14 22.390625 14.640625 C 23.03125 15.28125 23.359375 16.039063 23.359375 16.929688 C 23.359375 17.789063 23.058594 18.53125 22.46875 19.148438 C 21.878906 19.769531 21.140625 20.121094 20.28125 20.179688 C 20.148438 20.179688 20.078125 20.238281 20.078125 20.351563 L 20.078125 21.691406 C 20.078125 21.800781 20.148438 21.859375 20.28125 21.859375 C 21.621094 21.800781 22.75 21.289063 23.660156 20.351563 C 24.539063 19.398438 25 18.261719 25 16.929688 C 25 16.289063 24.839844 15.609375 24.53125 14.871094 C 25.320313 13.878906 25.71875 12.789063 25.71875 11.601563 C 25.71875 10.648438 25.480469 9.769531 25.011719 8.96875 C 24.539063 8.160156 23.898438 7.53125 23.101563 7.058594 C 22.300781 6.589844 21.421875 6.359375 20.480469 6.359375 C 18.890625 6.359375 17.601563 6.941406 16.609375 8.089844 C 15.800781 7.660156 14.910156 7.449219 13.949219 7.449219 C 12.539063 7.449219 11.289063 7.890625 10.199219 8.769531 C 9.109375 9.648438 8.410156 10.769531 8.101563 12.140625 C 6.980469 12.398438 6.070313 12.96875 5.359375 13.859375 C 4.640625 14.75 4.289063 15.769531 4.289063 16.929688 Z M 11.941406 21.550781 C 11.921875 21.691406 11.960938 21.761719 12.078125 21.761719 L 14.25 21.761719 L 12.929688 25.929688 L 13.21875 25.929688 L 17.398438 20.351563 C 17.441406 20.308594 17.449219 20.261719 17.421875 20.210938 C 17.390625 20.160156 17.351563 20.140625 17.28125 20.140625 L 15.101563 20.140625 L 17.398438 15.898438 C 17.46875 15.761719 17.429688 15.679688 17.261719 15.679688 L 14.320313 15.679688 C 14.238281 15.679688 14.179688 15.730469 14.109375 15.820313 Z M 18 9.050781 C 18.671875 8.390625 19.488281 8.058594 20.46875 8.058594 C 21.449219 8.058594 22.28125 8.398438 22.96875 9.089844 C 23.660156 9.769531 24 10.609375 24 11.601563 C 24 12.191406 23.828125 12.789063 23.480469 13.398438 C 22.511719 12.46875 21.359375 12 20.03125 12 L 19.71875 12 C 19.441406 10.808594 18.859375 9.828125 18 9.050781 Z M 18 9.050781 "/>
</g>
</svg>

<?xml version="1.0" encoding="utf-8"?>
<!-- Generator: Adobe Illustrator 22.0.1, SVG Export Plug-In . SVG Version: 6.00 Build 0)  -->
<svg version="1.1" id="Layer_1" xmlns="http://www.w3.org/2000/svg" xmlns:xlink="http://www.w3.org/1999/xlink" x="0px" y="0px"
	 viewBox="0 0 30 30" style="enable-background:new 0 0 30 30;" xml:space="preserve">
<path d="M4.29,16.93c0,0.66,0.12,1.28,0.38,1.88s0.59,1.11,1.02,1.55s0.94,0.79,1.52,1.05s1.21,0.42,1.87,0.45
	c0.12,0,0.18-0.06,0.18-0.17v-1.34c0-0.11-0.06-0.17-0.18-0.17c-0.87-0.06-1.6-0.41-2.19-1.03c-0.59-0.62-0.89-1.37-0.89-2.22
	c0-0.84,0.28-1.57,0.85-2.18c0.57-0.62,1.26-0.97,2.1-1.04l0.52-0.06c0.12,0,0.19-0.06,0.19-0.18l0.08-0.52
	c0.07-0.71,0.3-1.36,0.69-1.94s0.9-1.04,1.52-1.36s1.29-0.49,2.02-0.49c1.09,0,2.04,0.36,2.85,1.08c0.81,0.72,1.27,1.62,1.39,2.69
	l0.07,0.58c0,0.11,0.06,0.17,0.19,0.17h1.6c0.9,0,1.67,0.32,2.32,0.96c0.64,0.64,0.97,1.4,0.97,2.29c0,0.86-0.3,1.6-0.89,2.22
	c-0.59,0.62-1.33,0.97-2.19,1.03c-0.13,0-0.2,0.06-0.2,0.17v1.34c0,0.11,0.07,0.17,0.2,0.17c1.34-0.06,2.47-0.57,3.38-1.51
	C24.54,19.4,25,18.26,25,16.93c0-0.64-0.16-1.32-0.47-2.06c0.79-0.99,1.19-2.08,1.19-3.27c0-0.95-0.24-1.83-0.71-2.63
	c-0.47-0.81-1.11-1.44-1.91-1.91s-1.68-0.7-2.62-0.7c-1.59,0-2.88,0.58-3.87,1.73c-0.81-0.43-1.7-0.64-2.66-0.64
	c-1.41,0-2.66,0.44-3.75,1.32s-1.79,2-2.1,3.37c-1.12,0.26-2.03,0.83-2.74,1.72C4.64,14.75,4.29,15.77,4.29,16.93z M11.94,21.55
	c-0.02,0.14,0.02,0.21,0.14,0.21h2.17l-1.32,4.17h0.29l4.18-5.58c0.04-0.04,0.05-0.09,0.02-0.14s-0.07-0.07-0.14-0.07H15.1l2.3-4.24
	c0.07-0.14,0.03-0.22-0.14-0.22h-2.94c-0.08,0-0.14,0.05-0.21,0.14L11.94,21.55z M18,9.05c0.67-0.66,1.49-0.99,2.47-0.99
	c0.98,0,1.81,0.34,2.5,1.03C23.66,9.77,24,10.61,24,11.6c0,0.59-0.17,1.19-0.52,1.8c-0.97-0.93-2.12-1.4-3.45-1.4h-0.31
	C19.44,10.81,18.86,9.83,18,9.05z"/>
</svg>
